X:7
T:Stephney’s New Revived HP. WM.007
M:3/2
L:1/8
Q:1/2=100
S:Wm.Mittell’s MS, New Romney,Kent,1799
R:.Triple Hornpipe
O:England
A:Kent
Z:vmp.Chris Partington
K:CDor
B4B,CDE F2ED|E2C2edcdA2F2|G4EGFG F2GA|B2AG FGEFD2B,2:|!
|:d4fedcB4|B,CDEF2ED GEDE|e4gede{d}c4|c2ed cBAG AF=EF|!
B4B,CDE F2ED|E2C2ecBAB2ga|b2ag fgfe dedc|B2AG FGFED2″nb”B,2:|
W:Given as C2 in MS, may be better for leading back to beginning.

